X: 138
T: 138. Jesu, meine Freude
N: Derived from chor138.krn
C: Johann Sebastian Bach
%%abc-version 2.0
%%abcx-abcm2ps-target-version 5.9.1 (29 Sep 2008)
%%abc-creator hum2abc beta
%%abcx-conversion-date 2019/03/11 17:28:18
%%abc-edited-by Craig Stuart Sapp
%%humdrum-veritas 46691817
%%humdrum-veritas-data 1915113597
%%
%%barnumbers 0
L: 1/4
M: C
%%staves [1 2 3 4]
V: 1 clef=treble
V: 2 clef=treble
V: 3 clef=treble-8
V: 4 clef=bass
K: G
[V:1] BBAG | 
[V:2] GG/F/EE | 
[V:3] edcB | 
[V:4] E,/F,/G,C,/D,/E, | 
[V:1] F2!fermata!E2 | 
[V:2] E^D!fermata!B,2 | 
[V:3] cB/A/!fermata!G2 | 
[V:4] A,,B,,!fermata!E,2 | 
[V:1] BB^c^d | 
[V:2] GGA/G/F | 
[V:3] e=dA/B/=c | 
[V:4] E,/F,/G,F,/G,/A, | 
[V:1] e2!fermata!^d2 | 
[V:2] EF!fermata!F2 | 
[V:3] B^c!fermata!B2 | 
[V:4] ^G,^A,!fermata!B,2 | 
[V:1] egf3/e/ | 
[V:2] G/A/BBA | 
[V:3] Bee^d | 
[V:4] =G,/F,/E,B,B,, | 
[V:1] !fermata!e4 :|]  
[V:2] !fermata!G4 :|]  
[V:3] !fermata!B4 :|]  
[V:4] !fermata!E,4 :|]  
[V:1] BBcB | 
[V:2] G/F/ E/^D/ E/F/G | 
[V:3] eBAG | 
[V:4] E,/F,/G,C,/=D,/E, | 
[V:1] A3/G/!fermata!G2 | 
[V:2] GF!fermata!=D2 | 
[V:3] ed!fermata!B2 | 
[V:4] ^C,D,!fermata!G,,2 | 
[V:1] B^cdB | 
[V:2] GGFF | 
[V:3] de^AB | 
[V:4] G,/F,/E,F,/E,/D, | 
[V:1] ed^c2 | 
[V:2] GFF3/E/ | 
[V:3] ^ABB^A | 
[V:4] ^C,D,/E,/F,2 | 
[V:1] !fermata!B2BB | 
[V:2] !fermata!^D2=D/E/=F | 
[V:3] !fermata!F2^G^G | 
[V:4] !fermata!B,,2B,,/^C,/=D, | 
[V:1] AGF2 | 
[V:2] E/^F/G/E/E^D | 
[V:3] A/c/B^cB/A/ | 
[V:4] ^C,/^D,/E,^A,,B,, | 
[V:1] !fermata!E4 |]  
[V:2] !fermata!B,4 |]  
[V:3] !fermata!^G4 |]  
[V:4] !fermata!E,,4 |]  



